svg/fluentui-system-icons/ic_fluent_earth_leaf_20_regular.svg

<svg width="20" height="20" viewBox="0 0 20 20" fill="none" xmlns="http://www.w3.org/2000/svg">
<path d="M2 10.0005C2 5.58193 5.58193 2 10.0005 2C14.419 2 18.0009 5.58193 18.0009 10.0005C18.0009 10.114 17.9985 10.2271 17.9939 10.3395C17.8095 10.2891 17.5941 10.2331 17.3577 10.1804C17.2437 10.1551 17.1245 10.1303 17.0001 10.107C17.0006 10.0715 17.0009 10.036 17.0009 10.0005C17.0009 7.91313 16.0874 6.03917 14.6383 4.75659L14.5694 4.83119C14.368 5.04899 14.0894 5.34694 13.7812 5.66723C13.179 6.29297 12.4298 7.03983 11.9264 7.41957C11.9565 7.48601 12.0266 7.59585 12.1683 7.77893C12.2061 7.82783 12.248 7.8804 12.2926 7.93652C12.6087 8.3337 13.0663 8.90873 13.2514 9.61951C13.2996 9.80442 13.3349 9.97507 13.3614 10.1309C13.0214 10.2048 12.6983 10.3 12.3941 10.4165C12.3707 10.2553 12.3364 10.0738 12.2837 9.87157C12.156 9.38104 11.8433 8.98382 11.5198 8.57281C11.4724 8.51265 11.4247 8.45202 11.3774 8.39094C11.2179 8.18479 11.0147 7.9126 10.941 7.62168C10.8994 7.45762 10.8927 7.26773 10.9659 7.07389C11.0379 6.88366 11.1687 6.73786 11.3175 6.62625C11.7455 6.30525 12.4451 5.61348 13.0606 4.97382C13.3631 4.65957 13.6369 4.36665 13.8353 4.1522L13.8407 4.14637C12.7381 3.42163 11.4185 3 10.0005 3C9.91521 3 9.83031 3.00152 9.7458 3.00455C9.86317 3.22672 9.99842 3.50943 10.1183 3.82797C10.399 4.57367 10.6449 5.64539 10.2033 6.58568C9.79914 7.44635 9.10639 7.66986 8.57106 7.80818L8.47449 7.83303C7.96849 7.96298 7.71927 8.02698 7.54465 8.29209C7.37449 8.55043 7.41557 8.86656 7.5812 9.4063C7.59333 9.44583 7.60629 9.48716 7.6197 9.5299C7.68593 9.74102 7.76301 9.98674 7.80319 10.2177C7.85302 10.5041 7.86425 10.8535 7.69014 11.1876C7.51101 11.5313 7.27611 11.7617 7.00073 11.9117C6.74001 12.0538 6.46782 12.1088 6.25369 12.1468L6.16583 12.1623C5.75804 12.2337 5.52062 12.2752 5.29859 12.5131C5.12129 12.703 5.01993 13.0212 4.96215 13.4545C4.93842 13.6325 4.92414 13.8091 4.90966 13.9882L4.90194 14.0831C4.88553 14.282 4.86578 14.5017 4.82337 14.6881L4.8189 14.7077C5.82031 15.8094 7.16825 16.5904 8.69051 16.8786C8.50532 17.1743 8.33515 17.479 8.17725 17.7922C4.63719 16.9672 2 13.7918 2 10.0005ZM8.79818 3.35449C8.74509 3.25875 8.69907 3.18155 8.66555 3.12713C5.43779 3.75032 3 6.5907 3 10.0005C3 11.2834 3.34511 12.4857 3.94756 13.5197C3.95442 13.4545 3.96211 13.3885 3.97092 13.3224C4.03324 12.855 4.16394 12.2631 4.56759 11.8307C5.02964 11.3357 5.59299 11.2428 5.97144 11.1803C6.00927 11.1741 6.04524 11.1682 6.07908 11.1622C6.28242 11.1261 6.41495 11.0921 6.52232 11.0336C6.61501 10.9831 6.71155 10.9015 6.80333 10.7254C6.83178 10.6708 6.85079 10.5776 6.81799 10.3891C6.79017 10.2292 6.73787 10.0616 6.67266 9.85264C6.65749 9.80403 6.64162 9.75318 6.6252 9.69967C6.47264 9.20253 6.25134 8.43764 6.70954 7.74201C7.1093 7.1351 7.74901 6.97962 8.18663 6.87325C8.23393 6.86175 8.27888 6.85083 8.32091 6.83997C8.78793 6.7193 9.09282 6.59785 9.29815 6.16061C9.5594 5.60431 9.44136 4.8682 9.18241 4.18024C9.05835 3.85064 8.91305 3.56162 8.79818 3.35449ZM18.9253 11.7371C18.8342 11.5897 18.6733 11.4999 18.5 11.4999C18.5 11.4999 18.4975 11.4999 18.4919 11.4994C18.4859 11.4989 18.4775 11.498 18.4663 11.4964C18.4435 11.4931 18.4136 11.4875 18.375 11.4789C18.2962 11.4613 18.1994 11.4353 18.0761 11.4008L17.9812 11.3741C17.7538 11.3101 17.4681 11.2296 17.14 11.1565C16.3828 10.9878 15.3855 10.8542 14.188 11.0039C12.9864 11.1541 12.0666 11.5612 11.4402 12.1457C10.8093 12.7343 10.5 13.4822 10.5 14.2464C10.5 14.4289 10.5138 14.6024 10.538 14.7663C11.5889 13.8493 12.8829 13.1084 14.3144 12.5358C14.5708 12.4332 14.8618 12.558 14.9643 12.8143C15.0669 13.0707 14.9422 13.3617 14.6858 13.4643C13.8888 13.7831 13.1516 14.1512 12.488 14.5669C10.8358 15.5306 9.80681 16.7686 9.0529 18.2764C8.9294 18.5234 9.02951 18.8238 9.2765 18.9473C9.52349 19.0708 9.82383 18.9706 9.94732 18.7236C10.3306 17.9571 10.7897 17.2682 11.3946 16.656C11.4149 16.6932 11.4383 16.7345 11.4649 16.7791C11.5759 16.9655 11.7447 17.2146 11.9774 17.4652C12.4424 17.966 13.1909 18.4999 14.25 18.4999C14.9021 18.4999 15.4435 18.3333 15.8878 18.044C16.3276 17.7577 16.6461 17.3686 16.8844 16.9605C17.2525 16.3301 17.4628 15.5808 17.619 15.0242C17.6581 14.8848 17.6939 14.7574 17.7279 14.6471C17.9014 14.0834 18.1536 13.5767 18.3884 13.1635C18.5056 12.9571 18.617 12.7767 18.7125 12.6224L18.7287 12.5962C18.8124 12.461 18.896 12.3259 18.9472 12.2235C19.0247 12.0686 19.0164 11.8845 18.9253 11.7371Z" fill="#212121"/>
</svg>

<svg xmlns="http://www.w3.org/2000/svg" width="20" height="20"><path d="M2 10a8 8 0 1 1 15.994.34 13.76 13.76 0 0 0-.994-.233v-.106a6.983 6.983 0 0 0-2.362-5.244l-.069.074c-.201.218-.48.516-.788.836-.602.626-1.351 1.373-1.855 1.753.03.066.1.176.242.359l.125.158c.316.397.773.972.958 1.683.049.184.084.355.11.51-.34.075-.663.17-.967.286a4.994 4.994 0 0 0-.11-.544c-.128-.491-.44-.888-.764-1.3l-.143-.181c-.16-.206-.362-.478-.436-.77a.904.904 0 0 1 .025-.547c.072-.19.203-.336.352-.448.428-.32 1.127-1.013 1.743-1.652.302-.314.576-.607.774-.822l.006-.006a6.968 6.968 0 0 0-4.095-1.141c.117.222.252.504.372.823.281.746.527 1.817.085 2.758-.404.86-1.097 1.084-1.632 1.222l-.097.025c-.506.13-.755.194-.93.46-.17.257-.128.574.037 1.113l.039.124c.066.211.143.457.183.688.05.286.061.636-.113.97a1.673 1.673 0 0 1-.69.724 2.4 2.4 0 0 1-.746.235l-.088.015c-.408.072-.645.113-.867.351-.178.19-.28.508-.337.941a9.55 9.55 0 0 0-.052.534l-.008.095a4.534 4.534 0 0 1-.079.605l-.004.02a6.99 6.99 0 0 0 3.872 2.17c-.186.296-.356.601-.514.914A8.003 8.003 0 0 1 2 10Zm6.798-6.646a5.798 5.798 0 0 0-.132-.227A7.003 7.003 0 0 0 3.948 13.52c.006-.066.014-.131.023-.198.062-.467.193-1.059.597-1.491.462-.495 1.025-.588 1.403-.65l.108-.019c.203-.036.336-.07.443-.128a.678.678 0 0 0 .281-.309c.029-.054.048-.147.015-.336a4.405 4.405 0 0 0-.145-.536L6.625 9.7c-.152-.497-.374-1.262.085-1.958.4-.607 1.039-.762 1.477-.869l.134-.033c.467-.12.772-.242.977-.68.261-.556.143-1.292-.116-1.98a6.332 6.332 0 0 0-.384-.826Zm10.127 8.383a.5.5 0 0 0-.425-.237h-.008a1.269 1.269 0 0 1-.117-.02 6.155 6.155 0 0 1-.299-.08l-.095-.026a15.946 15.946 0 0 0-.841-.218 8.515 8.515 0 0 0-2.952-.152c-1.202.15-2.121.557-2.748 1.142-.63.588-.94 1.336-.94 2.1 0 .183.014.356.038.52 1.05-.917 2.345-1.658 3.776-2.23a.5.5 0 1 1 .372.928 13.88 13.88 0 0 0-2.198 1.103c-1.652.964-2.681 2.202-3.435 3.71a.5.5 0 0 0 .894.447c.384-.767.843-1.456 1.448-2.068a4.1 4.1 0 0 0 .583.81c.464.5 1.213 1.034 2.272 1.034.652 0 1.194-.167 1.638-.456.44-.286.758-.675.996-1.084.369-.63.579-1.38.735-1.936.04-.14.075-.267.109-.377a7.5 7.5 0 0 1 .66-1.483c.118-.207.229-.387.324-.542l.017-.026c.083-.135.167-.27.218-.373a.5.5 0 0 0-.022-.486Z"/></svg>
